X:3
T:Rond de St. Vincent
R:rond
O:Bretagne
D:Kornog: Ar Seizh Avel
Z:id:hn-rond-3
M:4/4
Q:1/4=180
K:BPhr
FF BB cB AG | FF B2 cB AG | (3FGA B2 cB AG | FF BB cB AG ||
|: fg fe dc B{c}B | AB ^cB AG FB | (3FGA B2 A=c Bc | dd cA B{c}B AG :|

